!!!OTL: Down by the Riverside
!!!COM: 
!!!ODT: 
!!!YOR: The Folksong Fake Book
!!!YOY: 2000
!!!AST: Folk song
!!!YEC: Brian Luke, 2001
**kern	**harm
*k[f#]	*k[f#]
*M4/4	*M4/4
*G:	*G:
*>A	*>A
8b	.
8a#	.
=1	=1
4b	I
2d	.
4e	.
=2	=2
4.g	.
[8b	.
2b]	.
=3	=3
4r	.
4b	.
4.b	.
8a#	.
=4	=4
8b	.
4a	.
[8g	.
2g]	.
=5	=5
4r	V7
4a	.
4.a	.
8g#	.
=6	=6
8a	.
4g	.
[8f#	.
2f#]	.
=7	=7
4r	I
4b	.
4.b	.
8a#	.
=8	=8
8b	.
4a	.
4.g	.
*>A'	*>A'
8b	.
8a#	.
=9	=9
4b	I
2d	.
4e	.
=10	=10
4.g	.
[8b	.
2b]	.
=11	=11
4r	.
4b	.
4.b	.
8a#	.
=12	=12
8b	.
4a	.
4.g	.
4g	.
=13	=13
4b	V7
2a	.
4cc	.
=14	=14
2b	.
2a	.
=15	=15
1g	I;
*>B	*>B
=16	=16
4r	V7/IV
4g	.
4a	.
8b	.
8b	.
=17	=17
8cc	IV
4cc	.
4.cc	.
4cc	.
=18	=18
4cc	.
4r	.
4g	.
8a	.
8a	.
=19	=19
8b	I
4b	.
4.b	.
4a	.
=20	=20
4g	.
4r	.
4g	.
8g	.
8g	.
=21	=21
4b	V7
2.a	.
=22	=22
2g	IV
2a	V
=23	=23
1b	I;
*>B'	*>B'
=24	=24
4r	V7/IV
4g	.
4a	.
8b	.
8b	.
=25	=25
8cc	IV
4cc	.
4.cc	.
4cc	.
=26	=26
4cc	.
4r	.
4g	.
8a	.
8a	.
=27	=27
8b	I
4b	.
4.b	.
4a	.
=28	=28
4g	.
4r	.
4g	.
8g	.
8g	.
=29	=29
4b	V7
2a	.
4cc	.
=30	=30
2b	.
2a	.
=31	=31
[1g	I;
=32	=32
2g]	.
4r	.
*-	*-
